src/assets/svg/ig.svg

<svg width="25" height="24" viewBox="0 0 25 24"  xmlns="http://www.w3.org/2000/svg">
<rect x="0.396423" width="23.8707" height="23.8707" rx="8" />
<path d="M9.84592 11.9353C9.84592 10.5621 10.9588 9.44859 12.332 9.44859C13.7053 9.44859 14.8188 10.5621 14.8188 11.9353C14.8188 13.3085 13.7053 14.422 12.332 14.422C10.9588 14.422 9.84592 13.3085 9.84592 11.9353ZM8.50164 11.9353C8.50164 14.0509 10.2165 15.7657 12.332 15.7657C14.4476 15.7657 16.1624 14.0509 16.1624 11.9353C16.1624 9.81978 14.4476 8.10491 12.332 8.10491C10.2165 8.10491 8.50164 9.81978 8.50164 11.9353ZM15.4189 7.95304C15.4189 8.13008 15.4713 8.30317 15.5696 8.45042C15.6679 8.59766 15.8077 8.71245 15.9712 8.78027C16.1347 8.84808 16.3147 8.86588 16.4884 8.83141C16.662 8.79694 16.8216 8.71175 16.9468 8.58661C17.072 8.46147 17.1574 8.30201 17.192 8.12838C17.2266 7.95475 17.2089 7.77476 17.1412 7.61117C17.0735 7.44757 16.9589 7.30772 16.8117 7.2093C16.6645 7.11088 16.4915 7.05832 16.3144 7.05824H16.3141C16.0768 7.05836 15.8492 7.15265 15.6814 7.32042C15.5135 7.4882 15.4191 7.71572 15.4189 7.95304ZM9.31838 18.0072C8.5911 17.9741 8.1958 17.853 7.9331 17.7506C7.58483 17.615 7.33634 17.4536 7.07507 17.1927C6.81381 16.9317 6.65208 16.6835 6.5171 16.3352C6.41469 16.0726 6.29355 15.6772 6.26049 14.9499C6.22432 14.1636 6.2171 13.9274 6.2171 11.9354C6.2171 9.94331 6.22492 9.70777 6.26049 8.92081C6.29361 8.19353 6.41565 7.79889 6.5171 7.53554C6.65268 7.18727 6.81417 6.93877 7.07507 6.67751C7.33598 6.41624 7.58423 6.25452 7.9331 6.11953C8.19568 6.01713 8.5911 5.89598 9.31838 5.86292C10.1047 5.82676 10.3409 5.81954 12.332 5.81954C14.3232 5.81954 14.5597 5.82735 15.3466 5.86292C16.0739 5.89604 16.4685 6.01808 16.7319 6.11953C17.0802 6.25452 17.3287 6.4166 17.5899 6.67751C17.8512 6.93841 18.0123 7.18727 18.1479 7.53554C18.2503 7.79812 18.3714 8.19353 18.4045 8.92081C18.4407 9.70777 18.4479 9.94331 18.4479 11.9354C18.4479 13.9274 18.4407 14.163 18.4045 14.9499C18.3714 15.6772 18.2496 16.0725 18.1479 16.3352C18.0123 16.6835 17.8508 16.932 17.5899 17.1927C17.329 17.4533 17.0802 17.615 16.7319 17.7506C16.4693 17.853 16.0739 17.9742 15.3466 18.0072C14.5603 18.0434 14.3241 18.0506 12.332 18.0506C10.34 18.0506 10.1044 18.0434 9.31838 18.0072ZM9.25661 4.52091C8.46249 4.55708 7.91985 4.683 7.44596 4.8674C6.95518 5.05782 6.53971 5.3133 6.12454 5.72781C5.70937 6.14233 5.45455 6.55845 5.26412 7.04923C5.07972 7.52342 4.95381 8.06577 4.91764 8.85988C4.88088 9.65525 4.87247 9.90953 4.87247 11.9353C4.87247 13.9611 4.88088 14.2154 4.91764 15.0108C4.95381 15.8049 5.07972 16.3472 5.26412 16.8214C5.45455 17.3119 5.70943 17.7285 6.12454 18.1428C6.53965 18.5572 6.95518 18.8123 7.44596 19.0032C7.92075 19.1876 8.46249 19.3136 9.25661 19.3497C10.0524 19.3859 10.3063 19.3949 12.332 19.3949C14.3578 19.3949 14.6121 19.3865 15.4075 19.3497C16.2017 19.3136 16.7439 19.1876 17.2181 19.0032C17.7086 18.8123 18.1244 18.5573 18.5395 18.1428C18.9547 17.7283 19.209 17.3119 19.4 16.8214C19.5844 16.3472 19.7109 15.8049 19.7464 15.0108C19.7826 14.2148 19.791 13.9611 19.791 11.9353C19.791 9.90953 19.7826 9.65525 19.7464 8.85988C19.7103 8.06571 19.5844 7.52313 19.4 7.04923C19.209 6.55875 18.9541 6.14298 18.5395 5.72781C18.125 5.31264 17.7086 5.05782 17.2187 4.8674C16.7439 4.683 16.2016 4.55648 15.4081 4.52091C14.6127 4.48475 14.3584 4.47574 12.3326 4.47574C10.3069 4.47574 10.0524 4.48415 9.25661 4.52091Z" fill="#616161"/>
</svg>

<svg width="25" height="24" xmlns="http://www.w3.org/2000/svg"><rect x=".396" width="23.871" height="23.871" rx="8"/><path d="M9.846 11.935a2.486 2.486 0 114.973 0 2.486 2.486 0 01-4.973 0zm-1.344 0a3.83 3.83 0 107.66 0 3.83 3.83 0 00-7.66 0zm6.917-3.982a.896.896 0 10.895-.895.896.896 0 00-.895.895zm-6.1 10.054c-.728-.033-1.123-.154-1.386-.256a2.319 2.319 0 01-.858-.558 2.302 2.302 0 01-.558-.858c-.102-.262-.223-.658-.257-1.385-.036-.786-.043-1.023-.043-3.015 0-1.992.008-2.227.043-3.014.034-.727.156-1.122.257-1.385.136-.349.297-.597.558-.858.261-.262.51-.423.858-.558.263-.103.658-.224 1.385-.257.787-.036 1.023-.043 3.014-.043 1.991 0 2.228.007 3.015.043.727.033 1.121.155 1.385.257.348.135.597.297.858.558.261.26.422.51.558.858.102.262.223.658.256 1.385.037.787.044 1.022.044 3.014 0 1.992-.007 2.228-.044 3.015-.033.727-.154 1.123-.256 1.385a2.312 2.312 0 01-.558.858c-.261.26-.51.422-.858.558-.263.102-.658.223-1.385.256-.787.036-1.023.044-3.015.044-1.992 0-2.228-.008-3.014-.044zM9.256 4.521c-.795.036-1.337.162-1.811.346-.49.19-.906.446-1.321.86-.416.415-.67.831-.86 1.322-.185.474-.311 1.017-.347 1.81-.037.796-.046 1.05-.046 3.076s.009 2.28.046 3.076c.036.794.162 1.336.346 1.81.19.49.445.907.86 1.322.416.414.831.67 1.322.86.475.185 1.016.31 1.81.347.796.036 1.05.045 3.076.045s2.28-.008 3.075-.045c.795-.036 1.337-.162 1.811-.347.49-.19.906-.446 1.322-.86.415-.415.669-.831.86-1.322.184-.474.31-1.016.346-1.81.037-.796.045-1.05.045-3.076 0-2.025-.008-2.28-.045-3.075-.036-.794-.162-1.337-.346-1.81a3.668 3.668 0 00-.86-1.322 3.65 3.65 0 00-1.321-.86c-.475-.185-1.017-.312-1.81-.347-.796-.036-1.05-.045-3.076-.045s-2.28.008-3.076.045z" fill="#616161"/></svg>
